X: 32205
T: Phil Alexander's
R: slip jig
M: 9/8
K: Bminor
|:B3 d cAF(E|E) AED FD B,2|B3 d cAF(B|B)dcA F2 d/c/B/A/|
B3 d cAF(E|E)AED FD B2|1 [M:7/8] B,CD EC EC|DE=C B,4:|2 [M:4/4] B,CDE z E z E|[M:1/8] DE=C B,8||

